X:1
T:Bredon Hill and Other Songs
T:With Rue my Heart is Laden
T:Bredon Hill and Other Songs
T:George Butterworth
T:5. With Rue my Heart is Laden
T:Alfred Edward Housman
T:Creative Commons copyright waiver (CC0 1.0 Universal)
T:Creative Commons copyright waiver (CC0 1.0 Universal)
C:George Butterworth
Z:Alfred Edward Housman
Z:Creative Commons copyright waiver (CC0 1.0 Universal)
L:1/8
Q:1/4=114
M:4/4
K:E
V:1 treble nm="Voice"
V:1
"^Moderato, molto teneramente" z8 | z4 z2 F2 | c3 c (BA) B2 | c4 F z F2 | (GA) B2 (GF) E2 | %5
w: |With|rue my heart * is|lad- en For|gold- * en friends * I|
 F4 z2 F2 | c2- (3c c c (Bc) d2 | (c3 B) AG F2 | G A B2 (AG) (FE) ||[M:3/2] F4- F z z2 z2 E2 || %10
w: had, For|man- * y a rose- * lipt|maid- * en _ And|man- y a light- * foot *|lad. _ By|
[M:4/4] e2 c2 B2 F2 | G4 C z C2 | c2 A2 G2 D2 | E6 D2 | F2 E2 A2 G2 | c8 | F4 z2 F2 | %17
w: brooks too broad for|leap- ing The|light- foot boys are|laid; The|rose- lipt girls are|sleep-|ing In|
 (GA) B2{AB} (AG) (FE) ||[M:3/2] F8- F2 z2 ||[M:4/4] z8 | z8 | z8 | z8 |] %23
w: fields * where ro- * ses *|fade. _|||||

